images/icon-print.svg

<svg height="19" viewBox="0 0 18 19" width="18" xmlns="http://www.w3.org/2000/svg"><path d="m16.8498403 13.5353871h-2.2715655v3.3694474c0 .6362032-.5149441 1.1519478-1.1501598 1.1519478h-8.913738c-.63521569 0-1.15015975-.5157446-1.15015975-1.1519478v-3.3694474h-2.21405751c-.63521568 0-1.15015974-.5157446-1.15015974-1.1519479v-6.68129741c0-.63620322.51494406-1.15194784 1.15015974-1.15194784h15.69968056c.6352156 0 1.1501597.51574462 1.1501597 1.15194784v6.68129741c0 .6362033-.5149441 1.1519479-1.1501597 1.1519479zm-1.1214058-7.8908427c-.6193353 0-1.1214057.502851-1.1214057 1.12314914s.5020704 1.12314914 1.1214057 1.12314914 1.1214058-.502851 1.1214058-1.12314914-.5020705-1.12314914-1.1214058-1.12314914zm-11.2428115 4.5213953h9.028754v6.7676935h-9.028754zm1.15015975 1.1519478h6.69968055v1.0943504h-6.69968055zm0 2.2462983h5.60702875v1.0943504h-5.60702875zm-1.09265176-13.5641858h8.91373801c.6352157 0 1.1501598.51574461 1.1501598 1.15194784v2.24629828h-1.0894026l-.0032492-2.24629828h-9.028754l.00186901 2.24629828h-1.09452076v-2.24629828c0-.63620323.51494405-1.15194784 1.15015974-1.15194784z" fill-rule="evenodd"/></svg>

<?xml version="1.0" encoding="UTF-8" standalone="no"?>
<svg width="18px" height="19px" viewBox="0 0 18 19" version="1.1" xmlns="http://www.w3.org/2000/svg" xmlns:xlink="http://www.w3.org/1999/xlink">
    <!-- Generator: Sketch 43.1 (39012) - http://www.bohemiancoding.com/sketch -->
    <title>icon-print</title>
    <desc>Created with Sketch.</desc>
    <defs></defs>
    <g id="Page-1" stroke="none" stroke-width="1" fill="none" fill-rule="evenodd">
        <path d="M16.8498403,13.5353871 L14.5782748,13.5353871 L14.5782748,16.9048345 C14.5782748,17.5410377 14.0633307,18.0567823 13.428115,18.0567823 L4.514377,18.0567823 C3.87916131,18.0567823 3.36421725,17.5410377 3.36421725,16.9048345 L3.36421725,13.5353871 L1.15015974,13.5353871 C0.514944058,13.5353871 7.77914857e-17,13.0196425 0,12.3834392 L0,5.70214179 C-7.77914857e-17,5.06593857 0.514944058,4.55019395 1.15015974,4.55019395 L16.8498403,4.55019395 C17.4850559,4.55019395 18,5.06593857 18,5.70214179 L18,12.3834392 C18,13.0196425 17.4850559,13.5353871 16.8498403,13.5353871 L16.8498403,13.5353871 Z M15.7284345,5.6445444 C15.1090992,5.6445444 14.6070288,6.1473954 14.6070288,6.76769354 C14.6070288,7.38799168 15.1090992,7.89084268 15.7284345,7.89084268 C16.3477698,7.89084268 16.8498403,7.38799168 16.8498403,6.76769354 C16.8498403,6.1473954 16.3477698,5.6445444 15.7284345,5.6445444 L15.7284345,5.6445444 Z M4.485623,10.1659397 L13.514377,10.1659397 L13.514377,16.9336332 L4.485623,16.9336332 L4.485623,10.1659397 L4.485623,10.1659397 Z M5.63578275,11.3178875 L12.3354633,11.3178875 L12.3354633,12.4122379 L5.63578275,12.4122379 L5.63578275,11.3178875 L5.63578275,11.3178875 Z M5.63578275,13.5641858 L11.2428115,13.5641858 L11.2428115,14.6585362 L5.63578275,14.6585362 L5.63578275,13.5641858 L5.63578275,13.5641858 Z M4.54313099,0 L13.456869,0 C14.0920847,1.40681091e-16 14.6070288,0.515744614 14.6070288,1.15194784 L14.6070288,3.39824612 L13.5176262,3.39824612 L13.514377,1.15194784 L4.485623,1.15194784 L4.48749201,3.39824612 L3.39297125,3.39824612 L3.39297125,1.15194784 C3.39297125,0.515744614 3.9079153,2.17416232e-16 4.54313099,1.02313521e-16 L4.54313099,0 Z" id="icon-print" fill="#000000"></path>
    </g>
</svg>
